X: 2186
T: Aunt May's Canadian
R: jig
M: 6/8
K: Dmajor
A|:f2f fga|d2d dcB|ABA AGF|E2E E2A|
e2e efg|e2d c2B|ABA ABA|1 F3 F2A:|2 d3 d2A||
|:ABA faf|e2d d3|AFA BcB|A2G G3|
GFG efe|d2c c2B|1 ABA ABA|F3F2A:|2 ABA ABc|d3 d2A||

